public/assets/heatEq4.svg

<svg width="97" height="95" viewBox="0 0 97 95" fill="none" xmlns="http://www.w3.org/2000/svg">
<path d="M94.0545 29.0117H2.96216V81.061H94.0545V29.0117Z" fill="url(#paint0_linear_175_661)"/>
<path d="M81.9337 29.0117H15.0835V81.061H81.9337V29.0117Z" fill="#062023" stroke="#062023" stroke-width="3" stroke-miterlimit="10" stroke-linecap="round" stroke-linejoin="round"/>
<path d="M48.4589 78.6758C30.56 78.6758 31.396 58.8469 37.9728 51.766C37.4934 53.5363 37.1369 57.9495 40.3208 59.6705C38.8702 55.4663 37.309 47.6847 51.1634 37.8379C45.9634 44.9556 57.2977 45.6809 54.4211 62.289C58.6376 59.646 56.4863 48.8157 53.5114 46.6398C64.8334 51.2989 70.1072 78.6758 48.4589 78.6758Z" fill="#F5AE3D"/>
<path d="M48.6804 77.975C41.8454 77.975 38.6984 71.7669 41.5996 65.1655C41.3414 66.0998 42.1896 68.1281 44.3778 67.9314C43.6156 65.7064 42.8412 61.0104 49.5164 57.5068C48.2993 61.9201 52.393 62.8298 52.4053 67.5012C53.2043 67.1693 54.409 66.0014 54.3968 63.8255C58.3674 72.5414 54.5934 77.975 48.6804 77.975Z" fill="#FEF7EC"/>
<path d="M96.5626 81.0605H-0.000244141V94.7182H96.5626V81.0605Z" fill="url(#paint1_linear_175_661)"/>
<path d="M96.5626 15.3662H-0.000244141V29.0239H96.5626V15.3662Z" fill="url(#paint2_linear_175_661)"/>
<path d="M84.8965 0H12.1333V15.3665H84.8965V0Z" fill="url(#paint3_linear_175_661)"/>
<defs>
<linearGradient id="paint0_linear_175_661" x1="12.7229" y1="19.2534" x2="84.2912" y2="90.8217" gradientUnits="userSpaceOnUse">
<stop offset="0.00249518" stop-color="#28C985"/>
<stop offset="1" stop-color="#18808A"/>
</linearGradient>
<linearGradient id="paint1_linear_175_661" x1="20.7264" y1="60.3321" x2="75.8313" y2="115.437" gradientUnits="userSpaceOnUse">
<stop offset="0.00249518" stop-color="#28C985"/>
<stop offset="1" stop-color="#18808A"/>
</linearGradient>
<linearGradient id="paint2_linear_175_661" x1="20.7264" y1="-5.3625" x2="75.8314" y2="49.7425" gradientUnits="userSpaceOnUse">
<stop offset="0.00249518" stop-color="#28C985"/>
<stop offset="1" stop-color="#18808A"/>
</linearGradient>
<linearGradient id="paint3_linear_175_661" x1="26.4765" y1="-14.3488" x2="70.5385" y2="29.7132" gradientUnits="userSpaceOnUse">
<stop offset="0.00249518" stop-color="#28C985"/>
<stop offset="1" stop-color="#18808A"/>
</linearGradient>
</defs>
</svg>

<svg width="97" height="95" fill="none" xmlns="http://www.w3.org/2000/svg"><path d="M94.055 29.012H2.962V81.06h91.093v-52.05z" fill="url(#a)"/><path d="M81.934 29.012h-66.85V81.06h66.85v-52.05z" fill="#062023" stroke="#062023" stroke-width="3" stroke-miterlimit="10" stroke-linecap="round" stroke-linejoin="round"/><path d="M48.459 78.676c-17.899 0-17.063-19.83-10.486-26.91-.48 1.77-.836 6.184 2.348 7.904-1.45-4.204-3.012-11.985 10.842-21.832-5.2 7.118 6.135 7.843 3.258 24.451 4.217-2.643 2.065-13.473-.91-15.65 11.322 4.66 16.596 32.037-5.052 32.037z" fill="#F5AE3D"/><path d="M48.68 77.975c-6.835 0-9.982-6.208-7.08-12.81-.259.935.59 2.963 2.778 2.766-.762-2.225-1.537-6.92 5.138-10.424-1.217 4.413 2.877 5.323 2.89 9.994.798-.332 2.003-1.5 1.99-3.676 3.971 8.716.197 14.15-5.716 14.15z" fill="#FEF7EC"/><path d="M96.563 81.06H0v13.658h96.563V81.061z" fill="url(#b)"/><path d="M96.563 15.366H0v13.658h96.563V15.366z" fill="url(#c)"/><path d="M84.897 0H12.133v15.367h72.764V0z" fill="url(#d)"/><defs><linearGradient id="a" x1="12.723" y1="19.253" x2="84.291" y2="90.822" gradientUnits="userSpaceOnUse"><stop offset=".002" stop-color="#28C985"/><stop offset="1" stop-color="#18808A"/></linearGradient><linearGradient id="b" x1="20.726" y1="60.332" x2="75.831" y2="115.437" gradientUnits="userSpaceOnUse"><stop offset=".002" stop-color="#28C985"/><stop offset="1" stop-color="#18808A"/></linearGradient><linearGradient id="c" x1="20.726" y1="-5.362" x2="75.831" y2="49.742" gradientUnits="userSpaceOnUse"><stop offset=".002" stop-color="#28C985"/><stop offset="1" stop-color="#18808A"/></linearGradient><linearGradient id="d" x1="26.477" y1="-14.349" x2="70.538" y2="29.713" gradientUnits="userSpaceOnUse"><stop offset=".002" stop-color="#28C985"/><stop offset="1" stop-color="#18808A"/></linearGradient></defs></svg>
